message-text.svg

<svg fill="currentColor" viewBox="0 0 24 24"><path d="M20 2H4a2 2 0 0 0-2 2v18l4-4h14a2 2 0 0 0 2-2V4a2 2 0 0 0-2-2M6 9h12v2H6m8 3H6v-2h8m4-4H6V6h12"/></svg>

<svg  viewBox="0 0 24 24" fill="currentColor"><path  d="M20,2H4A2,2 0 0,0 2,4V22L6,18H20A2,2 0 0,0 22,16V4A2,2 0 0,0 20,2M6,9H18V11H6M14,14H6V12H14M18,8H6V6H18"/></svg>
